src/renderer/assets/images/arrows/sort-asc.svg

<svg xmlns="http://www.w3.org/2000/svg" viewBox="0 0 13 12">
  <path d="M12 9H8c-.6 0-1 .4-1 1s.4 1 1 1h4c.6 0 1-.4 1-1s-.4-1-1-1zM8 7h2c.6 0 1-.4 1-1s-.4-1-1-1H8c-.6 0-1 .4-1 1s.4 1 1 1zm0-4c.6 0 1-.4 1-1s-.4-1-1-1-1 .4-1 1 .4 1 1 1zM4.5 0c-.2 0-.3 0-.4.1L.3 3.2c-.1.1-.1.1-.1.3 0 .1.1.2.1.3l.5.7c.1.1.3.1.3.1.1 0 .3 0 .4-.1l1-.8c.2-.2.5-.1.5.1v7.8c0 .2.2.4.5.4h1c.2 0 .5-.2.5-.4V.4c0-.1-.1-.2-.2-.3-.1-.1-.2-.1-.3-.1z" fill-rule="evenodd" clip-rule="evenodd" fill="#aaadb4"/>
</svg>

<?xml version="1.0" encoding="utf-8"?>
<!-- Generator: Adobe Illustrator 24.2.3, SVG Export Plug-In . SVG Version: 6.00 Build 0)  -->
<svg version="1.1" id="Layer_1" xmlns="http://www.w3.org/2000/svg" xmlns:xlink="http://www.w3.org/1999/xlink" x="0px" y="0px"
	 viewBox="0 0 13 12" style="enable-background:new 0 0 13 12;" xml:space="preserve">
<style type="text/css">
	.st0{fill-rule:evenodd;clip-rule:evenodd;fill:#277EE6;}
</style>
<path class="st0" d="M12,9H8c-0.6,0-1,0.4-1,1s0.4,1,1,1h4c0.6,0,1-0.4,1-1S12.6,9,12,9z M8,7h2c0.6,0,1-0.4,1-1s-0.4-1-1-1H8
	C7.4,5,7,5.4,7,6S7.4,7,8,7z M8,3c0.6,0,1-0.4,1-1S8.6,1,8,1S7,1.4,7,2S7.4,3,8,3z M4.5,0C4.3,0,4.2,0,4.1,0.1L0.3,3.2
	C0.2,3.3,0.2,3.3,0.2,3.5c0,0.1,0.1,0.2,0.1,0.3l0.5,0.7c0.1,0.1,0.3,0.1,0.3,0.1c0.1,0,0.3,0,0.4-0.1l1-0.8C2.7,3.5,3,3.6,3,3.8
	v7.8C3,11.8,3.2,12,3.5,12h1C4.7,12,5,11.8,5,11.6V0.4c0-0.1-0.1-0.2-0.2-0.3S4.6,0,4.5,0z"/>
</svg>
